public/images/menu/statistics_2.svg

<svg width="120" height="119" viewBox="0 0 120 119" fill="none" xmlns="http://www.w3.org/2000/svg">
<path d="M20.0015 65.4033C21.107 65.4033 22.0031 64.5153 22.0031 63.42C22.0031 62.3246 21.107 61.4366 20.0015 61.4366C18.8961 61.4366 18 62.3246 18 63.42C18 64.5153 18.8961 65.4033 20.0015 65.4033Z" fill="#195A00"/>
<path d="M28.001 59.4573C29.1065 59.4573 30.0026 58.5693 30.0026 57.4739C30.0026 56.3786 29.1065 55.4906 28.001 55.4906C26.8956 55.4906 25.9995 56.3786 25.9995 57.4739C25.9995 58.5693 26.8956 59.4573 28.001 59.4573Z" fill="#195A00"/>
<path d="M48.0015 57.4756C49.107 57.4756 50.0031 56.5876 50.0031 55.4922C50.0031 54.3969 49.107 53.5089 48.0015 53.5089C46.8961 53.5089 46 54.3969 46 55.4922C46 56.5876 46.8961 57.4756 48.0015 57.4756Z" fill="#195A00"/>
<path d="M14.0025 75.312C15.1079 75.312 16.004 74.424 16.004 73.3287C16.004 72.2333 15.1079 71.3453 14.0025 71.3453C12.8971 71.3453 12.001 72.2333 12.001 73.3287C12.001 74.424 12.8971 75.312 14.0025 75.312Z" fill="#195A00"/>
<path d="M24.0015 73.3303C25.107 73.3303 26.0031 72.4423 26.0031 71.347C26.0031 70.2516 25.107 69.3636 24.0015 69.3636C22.8961 69.3636 22 70.2516 22 71.347C22 72.4423 22.8961 73.3303 24.0015 73.3303Z" fill="#195A00"/>
<path d="M32.0015 67.3847C33.107 67.3847 34.0031 66.4968 34.0031 65.4014C34.0031 64.3061 33.107 63.4181 32.0015 63.4181C30.8961 63.4181 30 64.3061 30 65.4014C30 66.4968 30.8961 67.3847 32.0015 67.3847Z" fill="#195A00"/>
<path d="M114 21.8H86V13.8727C86 12.7782 86.8954 11.8909 88 11.8909H104C107.314 11.8909 110 9.22902 110 5.94544C110 2.66186 107.314 0 104 0H86C79.3753 0.00655461 74.0066 5.32645 74 11.8909V21.8H46C42.6863 21.8 40 24.4618 40 27.7454V29.7272C40.0085 32.2812 41.6659 34.543 44.114 35.3417L44.86 45.6947C43.912 45.6392 42.966 45.5817 42 45.5817C39.1032 45.5878 36.2131 45.8572 33.366 46.3863L28.514 40.1436C33.16 35.5855 33.418 30.2128 31.028 27.1409C28.638 24.0691 23.312 22.9514 17.698 26.2333L16.4 24.5547C15.9713 23.9734 15.2582 23.6682 14.5373 23.7575C13.8163 23.8467 13.2009 24.3164 12.9297 24.9843C12.6586 25.6522 12.7743 26.4134 13.232 26.9725L14.536 28.6531C9.874 33.2112 9.646 38.5958 12.022 41.6557C14.44 44.7652 19.786 45.8176 25.352 42.5634L29.1 47.3852C14.484 51.5272 4 62.4668 4 75.3089C3.99526 76.1812 4.04603 77.053 4.152 77.919C4.39272 80.1505 5.88099 82.0575 8 82.8497V87.1998C3.97646 87.1948 0.577869 90.1574 0.0699343 94.1125C-0.438 98.0675 2.10345 101.779 6 102.773V107.018C6.00077 109.99 7.13112 112.853 9.166 115.036H2C0.89543 115.036 0 115.924 0 117.018C0 118.113 0.89543 119 2 119H118C119.105 119 120 118.113 120 117.018C120 115.924 119.105 115.036 118 115.036H107.514C109.349 113.069 110.456 110.544 110.656 107.872L115.886 35.3377C118.333 34.54 119.99 32.2799 120 29.7272V27.7454C120 24.4618 117.314 21.8 114 21.8V21.8ZM15.184 39.2399C13.584 37.1749 15.052 33.9168 17 31.8319L18.108 33.2568C18.5367 33.8381 19.2498 34.1433 19.9707 34.054C20.6917 33.9648 21.3071 33.4951 21.5783 32.8272C21.8494 32.1592 21.7337 31.3981 21.276 30.839L20.168 29.4141C22.586 28.1398 26.216 27.4501 27.86 29.5647C29.848 32.1212 27.196 36.3247 24.574 38.3263C21.952 40.3279 17.174 41.7965 15.184 39.2399ZM78 11.8909C78 7.51278 81.5817 3.96363 86 3.96363H104C105.105 3.96363 106 4.85092 106 5.94544C106 7.03997 105.105 7.92726 104 7.92726H88C84.6863 7.92726 82 10.5891 82 13.8727V21.8H78V11.8909ZM111.136 45.5817H48.862L48.148 35.6727H111.852L111.136 45.5817ZM107.42 97.1089H83.716C83.8961 96.4631 83.9916 95.797 84 95.1271C84 90.749 80.4183 87.1998 76 87.1998V82.8398C78.112 82.0569 79.5988 80.1619 79.844 77.9408C79.952 77.0676 80.0041 76.1886 80 75.3089C80 74.5598 79.926 73.8246 79.856 73.0893C83.8008 72.1614 86.4184 68.4522 85.9442 64.4622C85.47 60.4722 82.0544 57.4671 78 57.4726C76.4297 57.4814 74.8978 57.954 73.6 58.8301C70.0997 54.8452 65.7551 51.6749 60.876 49.5453H110.852L107.42 97.1089ZM76 91.1634C78.2091 91.1634 80 92.938 80 95.1271C80 97.3161 78.2091 99.0907 76 99.0907H38.828L46.828 91.1634H76ZM78 107.018V102.773C79.1975 102.463 80.3055 101.881 81.236 101.073H107.134L106.666 107.587C106.346 111.727 102.87 114.929 98.68 114.945H74.92C76.9017 112.772 77.9992 109.947 78 107.018V107.018ZM75.946 62.0308C76.5622 61.6487 77.2731 61.443 78 61.4362C79.9758 61.4275 81.6585 62.8571 81.9516 64.7932C82.2447 66.7294 81.0594 68.5853 79.168 69.1514C78.467 66.6289 77.3804 64.2275 75.946 62.0308ZM31.716 50.7562L36.416 56.8028C37.0923 57.6631 38.3431 57.8203 39.2148 57.1545C40.0865 56.4887 40.2515 55.2501 39.584 54.383L36.142 49.9556C38.0833 49.6904 40.0403 49.5534 42 49.5453C60.748 49.5453 76 61.1033 76 75.3089C76.0024 76.0375 75.9597 76.7655 75.872 77.4889C75.7689 78.5054 74.903 79.2777 73.872 79.2726H10.12C9.08147 79.2707 8.21497 78.486 8.12 77.4612C8.03576 76.7469 7.99568 76.0281 8 75.3089C8 63.8144 17.982 54.0678 31.716 50.7562V50.7562ZM12 83.2362H72V87.1998H46C45.4696 87.1999 44.961 87.4088 44.586 87.7805L30.096 102.137L17.496 87.8677C17.1167 87.4433 16.5721 87.2002 16 87.1998H12V83.2362ZM4 95.1271C4 92.938 5.79086 91.1634 8 91.1634H15.092L22.092 99.0907H8C5.79086 99.0907 4 97.3161 4 95.1271V95.1271ZM18 114.945C13.5817 114.945 10 111.396 10 107.018V103.054H25.6L27.096 104.749C27.8264 105.573 28.8679 106.061 29.974 106.098H30.104C31.1652 106.097 32.1828 105.68 32.934 104.937L34.828 103.054H74V107.018C74 111.396 70.4183 114.945 66 114.945H18ZM116 29.7272C116 30.8217 115.105 31.709 114 31.709H46C44.8954 31.709 44 30.8217 44 29.7272V27.7454C44 26.6509 44.8954 25.7636 46 25.7636H114C115.105 25.7636 116 26.6509 116 27.7454V29.7272Z" fill="#195A00"/>
<path d="M98 53.5089C93.5817 53.5089 90 57.0581 90 61.4362C90 65.8143 93.5817 69.3634 98 69.3634C102.418 69.3634 106 65.8143 106 61.4362C106 57.0581 102.418 53.5089 98 53.5089ZM98 65.3998C95.7909 65.3998 94 63.6252 94 61.4362C94 59.2471 95.7909 57.4725 98 57.4725C100.209 57.4725 102 59.2471 102 61.4362C102 63.6252 100.209 65.3998 98 65.3998Z" fill="#195A00"/>
<path d="M92 79.2725C88.6863 79.2725 86 81.9343 86 85.2179C86 88.5015 88.6863 91.1633 92 91.1633C95.3137 91.1633 98 88.5015 98 85.2179C98 81.9343 95.3137 79.2725 92 79.2725ZM92 87.1997C90.8954 87.1997 90 86.3124 90 85.2179C90 84.1234 90.8954 83.2361 92 83.2361C93.1046 83.2361 94 84.1234 94 85.2179C94 86.3124 93.1046 87.1997 92 87.1997Z" fill="#195A00"/>
</svg>

<svg width="120" height="119" fill="none" xmlns="http://www.w3.org/2000/svg"><path d="M20.002 65.403a1.993 1.993 0 0 0 2.001-1.983 1.993 1.993 0 0 0-2.002-1.983A1.993 1.993 0 0 0 18 63.42c0 1.095.896 1.983 2.002 1.983ZM28.001 59.457a1.993 1.993 0 0 0 2.002-1.983A1.993 1.993 0 0 0 28 55.49a1.992 1.992 0 0 0-2.002 1.983c0 1.095.897 1.983 2.002 1.983ZM48.002 57.476a1.993 1.993 0 0 0 2.001-1.984 1.993 1.993 0 0 0-2.002-1.983A1.992 1.992 0 0 0 46 55.492c0 1.096.896 1.984 2.002 1.984ZM14.002 75.312a1.992 1.992 0 0 0 2.002-1.983 1.993 1.993 0 0 0-2.002-1.984 1.993 1.993 0 0 0-2.001 1.984c0 1.095.896 1.983 2.002 1.983ZM24.002 73.33a1.993 1.993 0 0 0 2.001-1.983 1.993 1.993 0 0 0-2.002-1.983A1.993 1.993 0 0 0 22 71.347c0 1.095.896 1.983 2.002 1.983ZM32.002 67.385a1.992 1.992 0 0 0 2.001-1.984 1.993 1.993 0 0 0-2.002-1.983A1.992 1.992 0 0 0 30 65.401c0 1.096.896 1.984 2.002 1.984Z" fill="#195A00"/><path d="M114 21.8H86v-7.927c0-1.095.895-1.982 2-1.982h16c3.314 0 6-2.662 6-5.946C110 2.662 107.314 0 104 0H86c-6.625.007-11.993 5.326-12 11.89v9.91H46c-3.314 0-6 2.662-6 5.945v1.982c.008 2.554 1.666 4.816 4.114 5.615l.746 10.353c-.948-.056-1.894-.113-2.86-.113a47.808 47.808 0 0 0-8.634.804l-4.852-6.242c4.646-4.558 4.904-9.931 2.514-13.003-2.39-3.072-7.716-4.19-13.33-.908L16.4 24.555a2.008 2.008 0 0 0-3.47.43 1.968 1.968 0 0 0 .302 1.988l1.304 1.68c-4.662 4.558-4.89 9.943-2.514 13.003 2.418 3.11 7.764 4.162 13.33.907l3.748 4.822C14.484 51.527 4 62.467 4 75.31c-.005.872.046 1.744.152 2.61A5.954 5.954 0 0 0 8 82.849v4.35C3.976 87.196.578 90.158.07 94.113c-.508 3.956 2.033 7.667 5.93 8.661v4.245c0 2.972 1.131 5.835 3.166 8.018H2c-1.105 0-2 .888-2 1.982A1.99 1.99 0 0 0 2 119h116c1.105 0 2-.887 2-1.982a1.991 1.991 0 0 0-2-1.982h-10.486a11.79 11.79 0 0 0 3.142-7.164l5.23-72.534a5.936 5.936 0 0 0 4.114-5.61v-1.983c0-3.283-2.686-5.945-6-5.945ZM15.184 39.24c-1.6-2.065-.132-5.323 1.816-7.408l1.108 1.425a2.008 2.008 0 0 0 3.47-.43 1.968 1.968 0 0 0-.302-1.988l-1.108-1.425c2.418-1.274 6.048-1.964 7.692.15 1.988 2.557-.664 6.76-3.286 8.762-2.622 2.002-7.4 3.47-9.39.914ZM78 11.89c0-4.377 3.582-7.926 8-7.926h18c1.105 0 2 .887 2 1.981a1.99 1.99 0 0 1-2 1.982H88c-3.314 0-6 2.662-6 5.946V21.8h-4v-9.91Zm33.136 33.692H48.862l-.714-9.91h63.704l-.716 9.91Zm-3.716 51.527H83.716c.18-.646.276-1.312.284-1.982 0-4.378-3.582-7.927-8-7.927v-4.36a5.927 5.927 0 0 0 3.844-4.9c.108-.872.16-1.751.156-2.631 0-.75-.074-1.484-.144-2.22 3.945-.928 6.562-4.637 6.088-8.627-.474-3.99-3.89-6.995-7.944-6.99a7.945 7.945 0 0 0-4.4 1.358 36.213 36.213 0 0 0-12.724-9.285h49.976L107.42 97.11ZM76 91.163c2.21 0 4 1.775 4 3.964 0 2.19-1.79 3.964-4 3.964H38.828l8-7.928H76Zm2 15.855v-4.245a7.988 7.988 0 0 0 3.236-1.7h25.898l-.468 6.514c-.32 4.14-3.796 7.342-7.986 7.358H74.92a11.768 11.768 0 0 0 3.08-7.927Zm-2.054-44.987A3.969 3.969 0 0 1 78 61.436c1.976-.008 3.659 1.421 3.952 3.357a3.94 3.94 0 0 1-2.784 4.358 25.523 25.523 0 0 0-3.222-7.12Zm-44.23-11.275 4.7 6.047a2.012 2.012 0 0 0 2.799.352 1.97 1.97 0 0 0 .369-2.772l-3.442-4.427a44.644 44.644 0 0 1 5.858-.41c18.748 0 34 11.557 34 25.763a17.63 17.63 0 0 1-.128 2.18 1.993 1.993 0 0 1-2 1.784H10.12a2.005 2.005 0 0 1-2-1.812A17.48 17.48 0 0 1 8 75.31c0-11.495 9.982-21.241 23.716-24.553ZM12 83.236h60V87.2H46a2.01 2.01 0 0 0-1.414.58l-14.49 14.357-12.6-14.27A2.008 2.008 0 0 0 16 87.2h-4v-3.964ZM4 95.127c0-2.189 1.79-3.964 4-3.964h7.092l7 7.928H8c-2.21 0-4-1.775-4-3.964Zm14 19.818c-4.418 0-8-3.549-8-7.927v-3.964h15.6l1.496 1.695a4.025 4.025 0 0 0 2.878 1.349h.13a4.03 4.03 0 0 0 2.83-1.161l1.894-1.883H74v3.964c0 4.378-3.582 7.927-8 7.927H18Zm98-85.218a1.99 1.99 0 0 1-2 1.982H46c-1.105 0-2-.887-2-1.982v-1.982c0-1.094.895-1.981 2-1.981h68c1.105 0 2 .887 2 1.981v1.982Z" fill="#195A00"/><path d="M98 53.509c-4.418 0-8 3.55-8 7.927 0 4.378 3.582 7.927 8 7.927s8-3.549 8-7.927-3.582-7.927-8-7.927Zm0 11.89c-2.21 0-4-1.774-4-3.963s1.79-3.964 4-3.964c2.209 0 4 1.775 4 3.964 0 2.19-1.791 3.964-4 3.964ZM92 79.272c-3.314 0-6 2.662-6 5.946 0 3.283 2.686 5.945 6 5.945s6-2.662 6-5.945c0-3.284-2.686-5.946-6-5.946Zm0 7.928c-1.105 0-2-.888-2-1.982 0-1.095.895-1.982 2-1.982s2 .887 2 1.982a1.991 1.991 0 0 1-2 1.982Z" fill="#195A00"/></svg>
